.local/share/icons/Gruvbox-Plus-Dark/status/symbolic/appointment-missed-symbolic.svg

<svg xmlns="http://www.w3.org/2000/svg" width="16" height="16" version="1.1">
 <path style="fill:#ebdbb2" d="M 11,11 V 12 C 11,12.28 11.1,12.54 11.28,12.72 L 12.06,13.5 11.28,14.28 C 11.1,14.46 11,14.72 11,15 V 16 H 12 C 12.28,16 12.54,15.9 12.72,15.72 L 13.5,14.94 14.28,15.72 C 14.46,15.9 14.72,16 15,16 H 16 V 15 C 16,14.72 15.9,14.46 15.72,14.28 L 14.94,13.5 15.72,12.72 C 15.9,12.54 16,12.28 16,12 V 11 H 15 C 14.72,11 14.46,11.1 14.28,11.28 L 13.5,12.06 12.72,11.28 C 12.54,11.1 12.28,11 12,11 Z"/>
 <path style="fill:#ebdbb2;opacity:0.3" d="M 8 1 A 7 7 0 0 0 1 8 A 7 7 0 0 0 8 15 A 7 7 0 0 0 10 14.705 L 10 12.576 A 5 5 0 0 1 8 13 A 5 5 0 0 1 3 8 A 5 5 0 0 1 8 3 A 5 5 0 0 1 13 8 A 5 5 0 0 1 12.58 10 L 14.701 10 A 7 7 0 0 0 15 8 A 7 7 0 0 0 8 1 z"/>
 <path style="opacity:0.3;fill:#ebdbb2" d="M 10.49,4.9961 A 0.50005,0.50005 0 0 0 10.146,5.1465 L 8,7.293 6.3535,5.6465 A 0.50005,0.50005 0 1 0 5.6465,6.3535 L 7.6465,8.3535 A 0.50005,0.50005 0 0 0 8.3535,8.3535 L 10.854,5.8535 A 0.50005,0.50005 0 0 0 10.49,4.9961 Z"/>
</svg>

<svg width="16" height="16" version="1.1" xmlns="http://www.w3.org/2000/svg">
  <defs>
    <style id="current-color-scheme" type="text/css">.ColorScheme-Text { color:#ebdbb2; } .ColorScheme-Highlight { color:#458588; } .ColorScheme-NeutralText { color:#fe8019; } .ColorScheme-PositiveText { color:#689d6a; } .ColorScheme-NegativeText { color:#fb4934; }</style>
  </defs>
  <path class="ColorScheme-Text" fill="currentColor" d="m11 11v1c0 0.28 0.1 0.54 0.28 0.72l0.78 0.78-0.78 0.78c-0.18 0.18-0.28 0.44-0.28 0.72v1h1c0.28 0 0.54-0.1 0.72-0.28l0.78-0.78 0.78 0.78c0.18 0.18 0.44 0.28 0.72 0.28h1v-1c0-0.28-0.1-0.54-0.28-0.72l-0.78-0.78 0.78-0.78c0.18-0.18 0.28-0.44 0.28-0.72v-1h-1c-0.28 0-0.54 0.1-0.72 0.28l-0.78 0.78-0.78-0.78c-0.18-0.18-0.44-0.28-0.72-0.28z" />
  <path class="ColorScheme-Text" fill="currentColor" d="m8 1a7 7 0 0 0-7 7 7 7 0 0 0 7 7 7 7 0 0 0 2-0.2949v-2.129a5 5 0 0 1-2 0.4238 5 5 0 0 1-5-5 5 5 0 0 1 5-5 5 5 0 0 1 5 5 5 5 0 0 1-0.4199 2h2.121a7 7 0 0 0 0.2988-2 7 7 0 0 0-7-7zm2.49 3.996a0.5 0.5 0 0 0-0.3438 0.1504l-2.146 2.146-1.646-1.646a0.5 0.5 0 1 0-0.707 0.707l2 2a0.5 0.5 0 0 0 0.707 0l2.5-2.5a0.5 0.5 0 0 0-0.3633-0.8574z" opacity=".3"/>
</svg>
